file/london-underground.svg

<svg clip-rule="evenodd" fill-rule="evenodd" stroke-linejoin="round" stroke-miterlimit="1.41421" viewBox="0 0 560 400" xmlns="http://www.w3.org/2000/svg"><g fill-rule="nonzero" transform="matrix(1.00528 0 0 1.00528 79.9491 49.2078)"><path d="m199 270.563c-66.479 0-120.563-54.084-120.563-120.563s54.084-120.563 120.563-120.563 120.563 54.084 120.563 120.563-54.084 120.563-120.563 120.563zm0-199.347c-43.441 0-78.784 35.343-78.784 78.784s35.343 78.784 78.784 78.784 78.784-35.343 78.784-78.784-35.343-78.784-78.784-78.784z" fill="#dc241f"/><path d="m348.212 172.979h-298.424v-45.958h298.424z" fill="#0019a8"/><g fill="#fff"><path d="m122.66 137.734v24.461l8.864-.019c6.44 0 11.614-5.495 11.614-12.286 0-6.74-5.044-12.156-11.501-12.156zm8.827 4.489c4.046 0 7.293 3.463 7.293 7.668 0 4.258-3.359 7.687-7.406 7.687l-4.264.019v-15.354z"/><path d="m70.972 151.77v-14.041h4.399l.017 14.516c.119 3.615 2.794 6.512 6.088 6.563 3.396 0 6.141-3.009 6.141-6.563v-14.516h4.381l.017 14.109c0 6.439-4.68 11.244-10.539 11.244s-10.504-5.174-10.504-11.312zm184.85 0v-14.041h4.397l.019 14.516c.119 3.615 2.794 6.512 6.088 6.563 3.396 0 6.141-3.009 6.141-6.563v-14.516h4.381l.019 14.109c0 6.439-4.682 11.244-10.539 11.244-5.861 0-10.506-5.174-10.506-11.312zm-50.724-3.82v11.648c-7.83 6.791-21.08 2.198-21.08-10.135 0-12.334 12.141-14.339 20.779-10.504v4.805c-9.324-4.805-16.449-.494-16.449 5.506 0 6.72 5.189 11.225 12.351 8.323v-5.42h-3.942v-4.223zm35.084-10.759c-6.738 0-12.192 5.735-12.192 12.773 0 7.057 5.454 12.774 12.192 12.774s12.193-5.718 12.193-12.774c0-7.036-5.455-12.773-12.193-12.773zm-66.54.58c4.063 0 7.367 3.325 7.367 7.388 0 2.849-1.607 5.22-3.982 6.452l7.106 10.621h-4.769l-6.92-9.742h-2.637v9.742h-4.414v-24.461zm43.707 0c4.064 0 7.368 3.325 7.368 7.388 0 2.849-1.608 5.22-3.983 6.452l7.106 10.621h-4.771l-6.918-9.742h-2.639v9.742h-4.412v-24.461zm-70.791-.045h14.516v4.84h-10.117v4.293h7.848v4.716h-7.848v5.718h10.434v4.908h-14.833zm152.671 16.769v-16.769h4.398v24.475h-4.398l-12.634-16.451v16.451h-4.415v-24.475h4.415zm-185.66 0v-16.769h4.398v24.475h-4.398l-12.633-16.451v16.451h-4.417v-24.475h4.417zm126.613-12.477c4.239 0 7.668 3.549 7.668 7.947 0 4.417-3.429 7.986-7.668 7.986-4.223 0-7.648-3.569-7.648-7.986-.002-4.399 3.425-7.947 7.648-7.947zm-66.542 6.172c1.69 0 3.049-1.359 3.049-3.03 0-1.69-1.36-3.048-3.049-3.048l-3.777-.02v6.098zm43.705 0c1.69 0 3.049-1.359 3.049-3.03 0-1.69-1.361-3.048-3.049-3.048l-3.777-.02v6.098z"/><path d="m309.152 137.734v24.461l8.864-.019c6.439 0 11.613-5.495 11.613-12.286 0-6.74-5.044-12.156-11.501-12.156zm8.827 4.489c4.048 0 7.295 3.463 7.295 7.668 0 4.258-3.359 7.687-7.405 7.687l-4.266.019v-15.354z"/></g></g></svg>

<?xml version="1.0" encoding="UTF-8" standalone="no"?>
<!DOCTYPE svg PUBLIC "-//W3C//DTD SVG 1.1//EN" "http://www.w3.org/Graphics/SVG/1.1/DTD/svg11.dtd">
<svg width="100%" height="100%" viewBox="0 0 560 400" version="1.1" xmlns="http://www.w3.org/2000/svg" xmlns:xlink="http://www.w3.org/1999/xlink" xml:space="preserve" xmlns:serif="http://www.serif.com/" style="fill-rule:evenodd;clip-rule:evenodd;stroke-linejoin:round;stroke-miterlimit:1.41421;">
    <g transform="matrix(1.00528,0,0,1.00528,79.9491,49.2078)">
        <path id="red" d="M199,270.563C132.521,270.563 78.437,216.479 78.437,150C78.437,83.521 132.521,29.437 199,29.437C265.479,29.437 319.563,83.521 319.563,150C319.563,216.479 265.479,270.563 199,270.563ZM199,71.216C155.559,71.216 120.216,106.559 120.216,150C120.216,193.441 155.559,228.784 199,228.784C242.441,228.784 277.784,193.441 277.784,150C277.784,106.559 242.441,71.216 199,71.216Z" style="fill:rgb(220,36,31);fill-rule:nonzero;"/>
        <path id="blue" d="M348.212,172.979L49.788,172.979L49.788,127.021L348.212,127.021L348.212,172.979Z" style="fill:rgb(0,25,168);fill-rule:nonzero;"/>
        <g>
            <path id="D" d="M122.66,137.734L122.66,162.195L131.524,162.176C137.964,162.176 143.138,156.681 143.138,149.89C143.138,143.15 138.094,137.734 131.637,137.734L122.66,137.734ZM131.487,142.223C135.533,142.223 138.78,145.686 138.78,149.891C138.78,154.149 135.421,157.578 131.374,157.578L127.11,157.597L127.11,142.243L131.487,142.223Z" style="fill:white;fill-rule:nonzero;"/>
            <path id="U" d="M70.972,151.77L70.972,137.729L75.371,137.729L75.388,152.245C75.507,155.86 78.182,158.757 81.476,158.808C84.872,158.808 87.617,155.799 87.617,152.245L87.617,137.729L91.998,137.729L92.015,151.838C92.015,158.277 87.335,163.082 81.476,163.082C75.617,163.082 70.972,157.908 70.972,151.77ZM255.822,151.77L255.822,137.729L260.219,137.729L260.238,152.245C260.357,155.86 263.032,158.757 266.326,158.808C269.722,158.808 272.467,155.799 272.467,152.245L272.467,137.729L276.848,137.729L276.867,151.838C276.867,158.277 272.185,163.082 266.328,163.082C260.467,163.082 255.822,157.908 255.822,151.77ZM205.098,147.95L205.098,159.598C197.268,166.389 184.018,161.796 184.018,149.463C184.018,137.129 196.159,135.124 204.797,138.959L204.797,143.764C195.473,138.959 188.348,143.27 188.348,149.27C188.348,155.99 193.537,160.495 200.699,157.593L200.699,152.173L196.757,152.173L196.757,147.95L205.098,147.95ZM240.182,137.191C233.444,137.191 227.99,142.926 227.99,149.964C227.99,157.021 233.444,162.738 240.182,162.738C246.92,162.738 252.375,157.02 252.375,149.964C252.375,142.928 246.92,137.191 240.182,137.191ZM173.642,137.771C177.705,137.771 181.009,141.096 181.009,145.159C181.009,148.008 179.402,150.379 177.027,151.611L184.133,162.232L179.364,162.232L172.444,152.49L169.807,152.49L169.807,162.232L165.393,162.232L165.393,137.771L173.642,137.771ZM217.349,137.771C221.413,137.771 224.717,141.096 224.717,145.159C224.717,148.008 223.109,150.379 220.734,151.611L227.84,162.232L223.069,162.232L216.151,152.49L213.512,152.49L213.512,162.232L209.1,162.232L209.1,137.771L217.349,137.771ZM146.558,137.726L161.074,137.726L161.074,142.566L150.957,142.566L150.957,146.859L158.805,146.859L158.805,151.575L150.957,151.575L150.957,157.293L161.391,157.293L161.391,162.201L146.558,162.201L146.558,137.726ZM299.229,154.495L299.229,137.726L303.627,137.726L303.627,162.201L299.229,162.201L286.595,145.75L286.595,162.201L282.18,162.201L282.18,137.726L286.595,137.726L299.229,154.495ZM113.569,154.495L113.569,137.726L117.967,137.726L117.967,162.201L113.569,162.201L100.936,145.75L100.936,162.201L96.519,162.201L96.519,137.726L100.936,137.726L113.569,154.495ZM240.182,142.018C244.421,142.018 247.85,145.567 247.85,149.965C247.85,154.382 244.421,157.951 240.182,157.951C235.959,157.951 232.534,154.382 232.534,149.965C232.532,145.566 235.959,142.018 240.182,142.018ZM173.64,148.19C175.33,148.19 176.689,146.831 176.689,145.16C176.689,143.47 175.329,142.112 173.64,142.112L169.863,142.092L169.863,148.19L173.64,148.19ZM217.345,148.19C219.035,148.19 220.394,146.831 220.394,145.16C220.394,143.47 219.033,142.112 217.345,142.112L213.568,142.092L213.568,148.19L217.345,148.19Z" style="fill:white;fill-rule:nonzero;"/>
            <path id="D_1_" d="M309.152,137.734L309.152,162.195L318.016,162.176C324.455,162.176 329.629,156.681 329.629,149.89C329.629,143.15 324.585,137.734 318.128,137.734L309.152,137.734ZM317.979,142.223C322.027,142.223 325.274,145.686 325.274,149.891C325.274,154.149 321.915,157.578 317.869,157.578L313.603,157.597L313.603,142.243L317.979,142.223Z" style="fill:white;fill-rule:nonzero;"/>
        </g>
    </g>
</svg>
